public/assets/img/icon_line01.svg

<svg width="18" height="20" viewBox="0 0 18 20" fill="none" xmlns="http://www.w3.org/2000/svg">
<g clip-path="url(#clip0_66_164)">
<path d="M10.9336 7.40003V10.4488C10.9336 10.5275 10.8774 10.5875 10.8035 10.5875H10.3465C10.3008 10.5875 10.2621 10.5613 10.241 10.5313L8.9297 8.64503V10.4525C8.9297 10.5313 8.87345 10.5913 8.79962 10.5913H8.34259C8.26876 10.5913 8.21251 10.5313 8.21251 10.4525V7.40378C8.21251 7.32503 8.26876 7.26503 8.34259 7.26503H8.7961C8.83478 7.26503 8.88048 7.28753 8.90157 7.32503L10.2129 9.21128V7.40378C10.2129 7.32503 10.2692 7.26503 10.343 7.26503H10.8C10.8738 7.26128 10.9336 7.32503 10.9336 7.39628V7.40003ZM7.63946 7.26128H7.18243C7.1086 7.26128 7.05235 7.32128 7.05235 7.40003V10.4488C7.05235 10.5275 7.1086 10.5875 7.18243 10.5875H7.63946C7.71329 10.5875 7.76954 10.5275 7.76954 10.4488V7.40003C7.76954 7.32878 7.71329 7.26128 7.63946 7.26128ZM6.53556 9.81503H5.28399V7.40003C5.28399 7.32128 5.22774 7.26128 5.15391 7.26128H4.69688C4.62306 7.26128 4.5668 7.32128 4.5668 7.40003V10.4488C4.5668 10.4863 4.57735 10.5163 4.60196 10.5425C4.62657 10.565 4.6547 10.58 4.68985 10.58H6.52501C6.59884 10.58 6.65509 10.52 6.65509 10.4413V9.95378C6.65509 9.88253 6.59884 9.81503 6.53204 9.81503H6.53556ZM13.3453 7.26128H11.5067C11.4399 7.26128 11.3766 7.32128 11.3766 7.40003V10.4488C11.3766 10.52 11.4328 10.5875 11.5067 10.5875H13.3418C13.4156 10.5875 13.4719 10.5275 13.4719 10.4488V9.95753C13.4719 9.87878 13.4156 9.81878 13.3418 9.81878H12.0938V9.30878H13.3418C13.4156 9.30878 13.4719 9.24878 13.4719 9.17003V8.67878C13.4719 8.60003 13.4156 8.54003 13.3418 8.54003H12.0938V8.02628H13.3418C13.4156 8.02628 13.4719 7.96628 13.4719 7.88753V7.40003C13.4684 7.32878 13.4121 7.26128 13.3418 7.26128H13.3453ZM18 3.52253V15.7475C17.9965 17.6675 16.5199 19.2238 14.7164 19.22H3.25548C1.45548 19.2163 -0.00350929 17.6375 6.34022e-06 15.7175V3.49253C0.00352197 1.57253 1.4836 0.0162763 3.2836 0.0200263H14.7445C16.5445 0.0237763 18.0035 1.59878 18 3.52253ZM15.525 8.77628C15.525 5.64878 12.5824 3.10253 8.97188 3.10253C5.36134 3.10253 2.41876 5.64878 2.41876 8.77628C2.41876 11.5775 4.74962 13.9288 7.89962 14.375C8.66603 14.5513 8.57814 14.8513 8.40587 15.9538C8.37774 16.13 8.27228 16.6438 8.97188 16.3325C9.67149 16.0213 12.7442 13.9625 14.1223 12.275C15.0715 11.1613 15.525 10.0325 15.525 8.78378V8.77628Z" fill="#3EA1D1"/>
</g>
<defs>
<clipPath id="clip0_66_164">
<rect width="18" height="19.2" fill="white" transform="translate(0 0.0200195)"/>
</clipPath>
</defs>
</svg>

<svg xmlns="http://www.w3.org/2000/svg" width="18" height="20" fill="none" viewBox="0 0 18 20"><g clip-path="url(#a)"><path fill="#3ea1d1" d="M10.934 7.4v3.049c0 .079-.057.139-.13.139h-.457a.13.13 0 0 1-.106-.057L8.93 8.645v1.808c0 .078-.057.138-.13.138h-.457c-.074 0-.13-.06-.13-.138v-3.05c0-.078.056-.138.13-.138h.453a.13.13 0 0 1 .106.06l1.31 1.886V7.404c0-.079.057-.139.131-.139h.457a.13.13 0 0 1 .134.131zm-3.295-.139h-.457c-.073 0-.13.06-.13.139v3.049c0 .079.057.139.13.139h.457c.074 0 .13-.06.13-.14V7.4c0-.071-.056-.139-.13-.139M6.536 9.815H5.284V7.4c0-.079-.056-.139-.13-.139h-.457c-.074 0-.13.06-.13.139v3.049q-.001.055.035.094a.13.13 0 0 0 .088.037h1.835c.074 0 .13-.06.13-.139v-.487c0-.071-.056-.139-.123-.139zm6.81-2.554h-1.84c-.066 0-.13.06-.13.139v3.049c0 .071.057.139.13.139h1.836c.074 0 .13-.06.13-.14v-.49c0-.08-.056-.14-.13-.14h-1.248v-.51h1.248c.074 0 .13-.06.13-.138v-.491c0-.079-.056-.139-.13-.139h-1.248v-.514h1.248c.074 0 .13-.06.13-.138V7.4c-.004-.071-.06-.139-.13-.139zM18 3.523v12.225c-.003 1.92-1.48 3.476-3.284 3.472H3.256c-1.8-.004-3.26-1.582-3.256-3.502V3.492C.004 1.573 1.484.016 3.284.02h11.46c1.8.004 3.26 1.579 3.256 3.503m-2.475 5.253c0-3.127-2.943-5.673-6.553-5.673S2.419 5.649 2.419 8.776c0 2.802 2.33 5.153 5.48 5.599.767.176.68.476.507 1.579-.028.176-.134.69.566.378.7-.31 3.772-2.37 5.15-4.057.95-1.114 1.403-2.242 1.403-3.491z"/></g><defs><clipPath id="a"><path fill="#fff" d="M0 .02h18v19.2H0z"/></clipPath></defs></svg>
